X: 280
T:Regina celi letare
N: Derived from Jos2503-Regina_celi_letare.krn
C: Josquin des Prez
%%abc-version 2.0
%%abcx-abcm2ps-target-version 5.9.1 (29 Sep 2008)
%%abc-creator hum2abc beta
%%abcx-conversion-date 2019/02/12 16:15:52
%%abc-edited-by Jesse Rodin
%%abc-edited-by Will Watson 15/07/2011
%%abcx-initial-encoding-date 2011/07/15/
%%humdrum-veritas 563883629
%%humdrum-veritas-data 3287132424
%%linebreak <none>
%%barnumbers 0
L: 1/4
M: 2/1
Q: 1/2=120
%%staves [1 2 3 4]
V: 1 clef=treble
V: 2 clef=treble-8
V: 3 clef=treble-8
V: 4 clef=bass
K: C
[V:1] z8 | 
[V:2] z8 | 
[V:3] z8 | 
[V:4] C,4D,4 | 
[V:1] z8 | 
[V:2] z8 | 
[V:3] z8 | 
[V:4] C,4D,4 | 
[V:1] c4d4 | 
[V:2] z8 | 
[V:3] z8 | 
[V:4] E,2C,2G,4 | 
[V:1] c4d4 | 
[V:2] z8 | 
[V:3] z8 | 
[V:4] A,2C4B,2 | 
[V:1] e4f4 | 
[V:2] z8 | 
[V:3] c4d4 | 
[V:4] C4z4 | 
[V:1] e4d2f2 | 
[V:2] z8 | 
[V:3] c4d4 | 
[V:4] C,4_B,,4 | 
[V:1] e2dcB3A | 
[V:2] c4d4 | 
[V:3] e4z4 | 
[V:4] C,4G,4 | 
[V:1] c4z4 | 
[V:2] c4d4 | 
[V:3] z4f4 | 
[V:4] A,2C4B,2 | 
[V:1] z4f3e | 
[V:2] e4z4 | 
[V:3] e4d2f2- | 
[V:4] C2C,2D,2_B,,2 | 
[V:1] dcc2z2d2 | 
[V:2] z4f4 | 
[V:3] f2e2d4 | 
[V:4] z2C,2D,2_B,,2 | 
[V:1] efgef3e | 
[V:2] e4d2f2- | 
[V:3] c4z4 | 
[V:4] z2C,2D,2_B,,2 | 
[V:1] dcc4B2 | 
[V:2] f2e2d4 | 
[V:3] z4f4- | 
[V:4] z2C,2D,4 | 
[V:1] c4z2d2 | 
[V:2] c4z4 | 
[V:3] f2e2d4 | 
[V:4] A,4B,4 | 
[V:1] e4f3e | 
[V:2] z4f4- | 
[V:3] c4d4- | 
[V:4] A,4D,4 | 
[V:1] dcc4B2 | 
[V:2] f2e2d4 | 
[V:3] d2e2f2g2 | 
[V:4] z4z2G,2 | 
[V:1] c2BAB3c | 
[V:2] c4d4- | 
[V:3] e2c2g4- | 
[V:4] A,4G,3A, | 
[V:1] d2G2z2d2 | 
[V:2] d2e2f2g2 | 
[V:3] g2fed4 | 
[V:4] B,2C2D2B,2 | 
[V:1] e2g3fe2- | 
[V:2] e2c2g4- | 
[V:3] c8 | 
[V:4] C4C,4 | 
[V:1] e2dcB3A | 
[V:2] g2fed4 | 
[V:3] z8 | 
[V:4] G,4G,4 | 
[V:1] c4C4 | 
[V:2] c8 | 
[V:3] c4g4 | 
[V:4] A,2C4B,A, | 
[V:1] D2E4D2 | 
[V:2] z8 | 
[V:3] g4a4 | 
[V:4] G,4F,4 | 
[V:1] E8 | 
[V:2] c4g4 | 
[V:3] g8 | 
[V:4] E,2C,3D,E,F, | 
[V:1] z8 | 
[V:2] g4a4 | 
[V:3] z4f4 | 
[V:4] G,2E,4D,2 | 
[V:1] C8 | 
[V:2] g8 | 
[V:3] e2g3fe2- | 
[V:4] E,8 | 
[V:1] G4A4 | 
[V:2] z4f4 | 
[V:3] e2dcd4 | 
[V:4] z8 | 
[V:1] G8 | 
[V:2] e2g3fe2- | 
[V:3] e8 | 
[V:4] E,3F,G,2C,2 | 
[V:1] z4F4 | 
[V:2] e2dcd4 | 
[V:3] z8 | 
[V:4] G,2A,2_B,4 | 
[V:1] E2C2G2A2 | 
[V:2] e8 | 
[V:3] g6f2 | 
[V:4] C8 | 
[V:1] B2c2d2e2- | 
[V:2] z8 | 
[V:3] e2dcB2c2- | 
[V:4] z8 | 
[V:1] e2dcd4 | 
[V:2] g6f2 | 
[V:3] c2e2d4 | 
[V:4] z4G,4 | 
[V:1] e4d2c2- | 
[V:2] e2dcB2c2- | 
[V:3] c4z4 | 
[V:4] C3B,G,2A,2- | 
[V:1] cBG2A2B2 | 
[V:2] c2e2d4 | 
[V:3] z4f4- | 
[V:4] A,G,E,2F,2D,2 | 
[V:1] c4d4 | 
[V:2] c4z4 | 
[V:3] f2e2d4 | 
[V:4] A,4B,4 | 
[V:1] e4f3e | 
[V:2] z4f4- | 
[V:3] c4d4- | 
[V:4] A,4D,4 | 
[V:1] dcc4B2 | 
[V:2] f2e2d4 | 
[V:3] d2e2f2g2 | 
[V:4] z4z2G,2 | 
[V:1] c2BAB3c | 
[V:2] c4d4- | 
[V:3] e2c2g4- | 
[V:4] A,4G,3A, | 
[V:1] d2G2z2d2 | 
[V:2] d2e2f2g2 | 
[V:3] g2fed4 | 
[V:4] B,2C2D2B,2 | 
[V:1] e2g3fe2- | 
[V:2] e2c2g4- | 
[V:3] c8 | 
[V:4] C8 | 
[V:1] e2dcB3A | 
[V:2] g2fed4 | 
[V:3] z4f4 | 
[V:4] z8 | 
[V:1] c6BA | 
[V:2] c8 | 
[V:3] g4a4 | 
[V:4] z4F,4 | 
[V:1] B2d3cA2 | 
[V:2] z4f4 | 
[V:3] g2b2a4 | 
[V:4] G,4D4 | 
[V:1] B2d3cA2 | 
[V:2] g4a4 | 
[V:3] g4z4 | 
[V:4] G,4z2F,2 | 
[V:1] B2G4^F2 | 
[V:2] g2b2a4 | 
[V:3] z8 | 
[V:4] G,4D4 | 
[V:1] G2ABc2de | 
[V:2] g4z4 | 
[V:3] g4c4 | 
[V:4] G,4A,4 | 
[V:1] fedcB3A | 
[V:2] z8 | 
[V:3] d8 | 
[V:4] F,4G,4 | 
[V:1] c3Bc2A2- | 
[V:2] g4c4 | 
[V:3] c4z2f2- | 
[V:4] C,4F,4 | 
[V:1] AGA2BAGF | 
[V:2] d8 | 
[V:3] f2d2d4 | 
[V:4] D,4G,4 | 
[V:1] E3FG2A2- | 
[V:2] c4z2f2- | 
[V:3] g3fe2d2 | 
[V:4] C,3D,E,2F,2- | 
[V:1] A2B3cd2 | 
[V:2] f2d2d4 | 
[V:3] c2B2g4- | 
[V:4] F,2G,3A,B,2 | 
[V:1] e3dc2B2 | 
[V:2] g3fe2d2 | 
[V:3] g2c2g3f | 
[V:4] C4C,2G,2 | 
[V:1] g6fe | 
[V:2] c2B2g4- | 
[V:3] ede4c2 | 
[V:4] C,2G,2C,D,E,F, | 
[V:1] d2c4B2 | 
[V:2] g2c2g3f | 
[V:3] B2c2d4 | 
[V:4] G,2A,2G,4 | 
[V:1] g6fe | 
[V:2] ede4c2 | 
[V:3] c8 | 
[V:4] z2C,3D,E,F, | 
[V:1] d2c4B2 | 
[V:2] B2c2d4 | 
[V:3] z8 | 
[V:4] G,2A,2G,4 | 
[V:1] c2G3FE2- | 
[V:2] c8 | 
[V:3] g8 | 
[V:4] C,8 | 
[V:1] E2DCB,4 | 
[V:2] z8 | 
[V:3] c4d4 | 
[V:4] z8 | 
[V:1] C8 | 
[V:2] g8 | 
[V:3] e2g3fe2- | 
[V:4] z8 | 
[V:1] z8 | 
[V:2] c4d4 | 
[V:3] e2dcB3A | 
[V:4] z8 | 
[V:1] G8 | 
[V:2] e2g3fe2- | 
[V:3] c8 | 
[V:4] z8 | 
[V:1] C4D4 | 
[V:2] e2dcB3A | 
[V:3] z8 | 
[V:4] z4G,4 | 
[V:1] E2G3FE2- | 
[V:2] c8 | 
[V:3] c4c4 | 
[V:4] C,4C,2C2- | 
[V:1] E2DCB,4 | 
[V:2] z8 | 
[V:3] e3fg4- | 
[V:4] C2A,2G,4 | 
[V:1] C4z4 | 
[V:2] c4c4 | 
[V:3] g2fga4 | 
[V:4] C,8- | 
[V:1] C4C4 | 
[V:2] e3fg4- | 
[V:3] g6f2 | 
[V:4] C,8 | 
[V:1] E2G2F3E | 
[V:2] g2fga4 | 
[V:3] e4d4 | 
[V:4] z8 | 
[V:1] G3AB2c2- | 
[V:2] g6f2 | 
[V:3] e8 | 
[V:4] E,3F,G,2A,2- | 
[V:1] cBG2A4 | 
[V:2] e4d4 | 
[V:3] z8 | 
[V:4] A,G,E,2F,4 | 
[V:1] G4z4 | 
[V:2] e8 | 
[V:3] g6f2 | 
[V:4] E,3F,G,2A,2- | 
[V:1] z8 | 
[V:2] z8 | 
[V:3] e2dcB3A | 
[V:4] A,G,F,E,D,4 | 
[V:1] E3FG2A2- | 
[V:2] g6f2 | 
[V:3] c4z2c2 | 
[V:4] C,3D,E,2F,2 | 
[V:1] AGFED4 | 
[V:2] e2dcB3A | 
[V:3] c4z2d2 | 
[V:4] C,4z4 | 
[V:1] C4G4 | 
[V:2] c4z2c2 | 
[V:3] e2c2e4 | 
[V:4] C,4C4 | 
[V:1] A4B4 | 
[V:2] c4z2d2 | 
[V:3] f4g4- | 
[V:4] A,4G,4 | 
[V:1] c4z2C2 | 
[V:2] e2c2e4 | 
[V:3] g8 | 
[V:4] z2C,2C4 | 
[V:1] C4D2E2- | 
[V:2] f4g4- | 
[V:3] z2c2B2c2 | 
[V:4] A,4G,2C,2- | 
[V:1] E2C2D2EF | 
[V:2] g8 | 
[V:3] G2c2B2c2 | 
[V:4] C,4G,2C,2 | 
[V:1] G3FD2C2 | 
[V:2] z2c2B2c2 | 
[V:3] G2g4g2- | 
[V:4] E,3F,G,2C,2- | 
[V:1] E3FG2G2- | 
[V:2] G2c2B2c2 | 
[V:3] g2g3fe2- | 
[V:4] C,4E,2C,2 | 
[V:1] G2FED4 | 
[V:2] G2g4g2- | 
[V:3] e2dcB3A | 
[V:4] E,3F,G,4 | 
[V:1] C4z4 | 
[V:2] g2g3fe2- | 
[V:3] c4z2c2 | 
[V:4] z2C,2C4 | 
[V:1] z8 | 
[V:2] e2dcB3A | 
[V:3] c4z2d2 | 
[V:4] A,4G,4 | 
[V:1] z4z2G2 | 
[V:2] c4z2c2 | 
[V:3] e2c2e4 | 
[V:4] z2C,2C4 | 
[V:1] A4B4 | 
[V:2] c4z2d2 | 
[V:3] f4g4- | 
[V:4] A,4G,4 | 
[V:1] c4z2G2 | 
[V:2] e2c2e4 | 
[V:3] g4z2c2 | 
[V:4] z2C,2C4 | 
[V:1] A4B4 | 
[V:2] f4g4- | 
[V:3] c4z2d2 | 
[V:4] A,4G,4 | 
[V:1] c2g3fe2- | 
[V:2] g4z2c2 | 
[V:3] e2c2e2f2 | 
[V:4] z4C4- | 
[V:1] e2dcB2g2- | 
[V:2] c4z2d2 | 
[V:3] g8 | 
[V:4] C4G,4 | 
[V:1] gfe4dc | 
[V:2] e2c2e2f2 | 
[V:3] c8 | 
[V:4] C3B,A,4 | 
[V:1] !fermata!B8 | 
[V:2] !fermata!g8 | 
[V:3] !fermata!d8 | 
[V:4] !fermata!G,8 | 
[V:1] c16 |]  
[V:2] g16 |]  
[V:3] c16 |]  
[V:4] C,16 |]  



